images/icons/telegram.svg

<svg width="24" height="24" viewBox="0 0 24 24" fill="none" xmlns="http://www.w3.org/2000/svg">
<path d="M6 4C5.46957 4 4.96086 4.21071 4.58579 4.58579C4.21071 4.96086 4 5.46957 4 6V18C4 18.5304 4.21071 19.0391 4.58579 19.4142C4.96086 19.7893 5.46957 20 6 20H18C18.5304 20 19.0391 19.7893 19.4142 19.4142C19.7893 19.0391 20 18.5304 20 18V6C20 5.46957 19.7893 4.96086 19.4142 4.58579C19.0391 4.21071 18.5304 4 18 4H6ZM6 2H18C19.0609 2 20.0783 2.42143 20.8284 3.17157C21.5786 3.92172 22 4.93913 22 6V18C22 19.0609 21.5786 20.0783 20.8284 20.8284C20.0783 21.5786 19.0609 22 18 22H6C4.93913 22 3.92172 21.5786 3.17157 20.8284C2.42143 20.0783 2 19.0609 2 18V6C2 4.93913 2.42143 3.92172 3.17157 3.17157C3.92172 2.42143 4.93913 2 6 2V2Z" fill="black"/>
<path d="M15.1314 7.07392L7.97006 9.46094C7.38086 9.65726 7 10.186 7 10.8073C7 11.4285 7.38086 11.9568 7.97047 12.1535L10.878 13.1225L11.847 16.0304C12.0434 16.6192 12.5717 17 13.1929 17C13.8142 17 14.3426 16.6192 14.5393 16.0296L16.9264 8.86851C17.0971 8.35562 16.9659 7.79941 16.5834 7.41693C16.2009 7.03445 15.6439 6.90242 15.1314 7.07392ZM13.1929 14.7979L12.1949 11.8046L9.20176 10.8069L15.1879 8.81154L13.1929 14.7979Z" fill="black"/>
</svg>

<svg width="24" height="24" fill="none" xmlns="http://www.w3.org/2000/svg"><path d="M6 4a2 2 0 00-2 2v12a2 2 0 002 2h12a2 2 0 002-2V6a2 2 0 00-2-2H6zm0-2h12a4 4 0 014 4v12a4 4 0 01-4 4H6a4 4 0 01-4-4V6a4 4 0 014-4z" fill="#000"/><path d="M15.131 7.074L7.971 9.46A1.4 1.4 0 007 10.807c0 .621.38 1.15.97 1.346l2.908.97.969 2.907a1.4 1.4 0 001.346.97 1.4 1.4 0 001.346-.97l2.387-7.161a1.41 1.41 0 00-.343-1.452 1.41 1.41 0 00-1.452-.343zm-1.938 7.724l-.998-2.993-2.993-.998 5.986-1.995-1.995 5.986z" fill="#000"/></svg>
